X:665
T: "Der wandernde Schneider"
N: Z1346
O: Europa, Mitteleuropa, Deutschland, Friesland
R: Zech -, Schalks - Lied
M: 6/8
L: 1/16
K: Bb
F2 | F4B2c2B2c2 | d6d4d2 | f2d2B2d2c2c2 | B6z4
F2 | F4B2c2B2c2 | d6d4d2 | f2d2B2d2c2c2 | B6z6
d2d2f2c3BA2 | B4z8 | B2G2c2A3BAG | F4z6
F2 | F2B2B2c2B2c2 | d6d4d2 | f2d2B2d2c2c2 | B6z4

